X:1
T:Title
%%score { ( 1 3 ) | ( 2 4 ) }
L:1/8
M:4/4
K:Bb
V:1 treble nm="Grand Piano"
V:3 treble 
V:2 bass 
V:4 bass 
V:1
 z4 z2[Q:1/4=100] F2 | [Fd][Ec] [EB]2- [EB][FA][EG][EG] | [DF]6 F2 | FBBB A2 B2 |[M:3/4] c6 | %5
[M:1/4] F2 |[M:4/4] [Fd][Ec] [EB]2- [EB][FA][EG][EG] | [DF]6 F2 | G>A [FB]>[Fc] [Fd]2 [Ec]2 | %9
[M:3/4] [DB]6 |[M:1/4] [DF]2 |[M:4/4] [DB]>[DB] [DB]>[DB] [DB][FA][EG][DF] | [EG]6 z2 | %13
 c>c c>c cBAG |[M:3/4] [DF]2 [B,D]2 [DF]2 |[M:1/4] [DF][DB] |[M:4/4] [Fd]6 z2 | [EG]6 z2 | %18
 [Ac]2 [Ac]2 [Ac][Ge][Fd][CFc] |[M:3/4] B2- [GB-]>[GB-] [FB]2 |[M:1/4] FB |[M:4/4] [Fd]6 z2 | %22
 [EG]6 z2 | [Ac]2 [Ac]2 [Ac][Ge][Fd][CFc] |[M:3/4] B2- [GB-]>[GB-] [FB]2 |] %25
V:2
 z4 z2 [B,,F,]2 | [B,,F,][B,,F,] [B,,F,]2- [B,,F,][B,,F,][B,,B,][B,,B,] | [B,,B,]6 [F,C]2 | %3
 [F,C][F,CF][F,DF][F,DF] [F,CF]2 [F,DF]2 |[M:3/4] [F,EF]6 |[M:1/4] [B,,F,]2 | %6
[M:4/4] [B,,F,][B,,F,] [B,,F,]2- [B,,F,][B,,F,][B,,B,][B,,B,] | [B,,B,]6 [B,D]2 | %8
 [G,B,E]>[F,CF] [D,B,]>[C,A,] [B,,F,]2 [F,,F,]2 |[M:3/4] [B,,F,]6 |[M:1/4] [B,,B,]2 | %11
[M:4/4] [B,,F,]>[B,,F,] [B,,F,]>[B,,F,] [B,,F,][B,,B,][C,B,][D,B,] | z4 z2 .C2 | %13
 [F,A,F]>[F,A,F] [F,A,F]>[F,A,F] [F,A,F][F,B,F][F,CF][F,CE] |[M:3/4] [B,,F,]2 [B,,F,]2 [B,,F,]2 | %15
[M:1/4] [F,B,][D,B,] |[M:4/4] [B,,B,]2 B,,2 B,,2 [E,B,][E,B,] | [E,B,]2 E,2 D,2 [F,CF][F,CF] | %18
 [F,C]2 [F,C]2 [F,C][F,C][F,B,]F, |[M:3/4] z2 E>E D2 |[M:1/4] [F,B,D][D,B,D] | %21
[M:4/4] [B,,B,]2 B,,2 B,,2 [E,B,][E,B,] | [E,B,]2 E,2 D,2 [F,CF][F,CF] | %23
 [F,C]2 [F,C]2 [F,C][F,C][F,B,]F, |[M:3/4] z2 E>E D2 |] %25
V:3
 x8 | x8 | x8 | x8 |[M:3/4] x6 |[M:1/4] x2 |[M:4/4] x8 | x8 | x8 |[M:3/4] x6 |[M:1/4] x2 | %11
[M:4/4] x8 | z2 B,2 B,2 Ac | x8 |[M:3/4] x6 |[M:1/4] x2 |[M:4/4] z2 B,2 B,2 [Gc][GB] | %17
 z2 B,2 B,2 AB | x8 |[M:3/4] [DF]2 z2 z2 |[M:1/4] x2 |[M:4/4] z2 B,2 B,2 [Gc][GB] | z2 B,2 B,2 AB | %23
 x8 |[M:3/4] [DF]2 z2 z2 |] %25
V:4
 x8 | x8 | x8 | x8 |[M:3/4] x6 |[M:1/4] x2 |[M:4/4] x8 | x8 | x8 |[M:3/4] x6 |[M:1/4] x2 | %11
[M:4/4] x8 | [E,B,]2 E,2 E,2 [F,F]-[F,B,F] | x8 |[M:3/4] x6 |[M:1/4] x2 |[M:4/4] x8 | x8 | x8 | %19
[M:3/4] B,,6 |[M:1/4] x2 |[M:4/4] x8 | x8 | x8 |[M:3/4] B,,6 |] %25

